X:102
T:Mussels in the Corner
C:Newfoundland
M:2/4
L:1/8
K:D
|"D"dc BA|"G"FA B2|"D"AF DE|"A"FE E2|"D"dc BA| "G"FA B2|"D" AF "A"EF|"D"D2 D2:|
"D"FE DE|"G"FA B2|"D"AF DD/E/|"A"FE E2|"D"FE DE|"G"FA B2|"D"AF "A"EF|"D"D2 D2:|]
